docs/img/Group0.svg

<svg width="120" height="28" viewBox="0 0 120 28" fill="none" xmlns="http://www.w3.org/2000/svg">
<path fill-rule="evenodd" clip-rule="evenodd" d="M71.3496 7.38148C70.7831 7.63254 70.4239 8.20052 70.44 8.81998V8.83998C70.4362 9.24689 70.6025 9.63691 70.8987 9.91598C71.1948 10.1951 71.594 10.3379 72 10.31C72.6195 10.2976 73.1704 9.91279 73.3952 9.33534C73.62 8.75789 73.4743 8.10187 73.0262 7.67387C72.5781 7.24587 71.9161 7.13042 71.3496 7.38148ZM37.87 8.06998H34.87V20.2H37.87V8.06998ZM43.74 10.83C40.9 10.83 39.06 12.62 39.06 15.62C39.06 18.67 40.86 20.42 43.74 20.42C46.62 20.42 48.42 18.62 48.42 15.62C48.42 12.62 46.58 10.83 43.74 10.83ZM45.41 15.62C45.41 13.97 44.76 13 43.74 13C42.72 13 42.08 14 42.08 15.62C42.08 17.24 42.71 18.22 43.74 18.22C44.77 18.22 45.41 17.3 45.41 15.63V15.62ZM52.43 20.79H49.55V20.8C49.72 22.46 51.37 23.65 54.02 23.65C56.87 23.65 58.8 22.29 58.8 20.1V11H55.8V12.67C55.3375 11.5647 54.2372 10.863 53.04 10.91C50.74 10.91 49.36 12.72 49.36 15.59C49.36 18.46 50.81 20.13 53 20.13C54.1597 20.193 55.241 19.5434 55.73 18.49H55.79V20.17C55.79 21.07 55.19 21.69 54.05 21.69C53.3704 21.7814 52.7115 21.4153 52.43 20.79ZM55.8 15.61C55.8 14.15 55.13 13.23 54.07 13.23C53.01 13.23 52.36 14.14 52.36 15.61C52.36 17.08 53 17.91 54.07 17.91C55.14 17.91 55.8 17.1 55.8 15.62V15.61ZM64.61 10.82C61.77 10.82 59.93 12.61 59.93 15.61V15.62C59.93 18.67 61.72 20.41 64.61 20.41C67.5 20.41 69.3 18.61 69.3 15.61C69.3 12.61 67.45 10.82 64.61 10.82ZM66.28 15.61C66.28 13.96 65.63 12.99 64.61 12.99C63.59 12.99 63 14 63 15.63C63 17.26 63.63 18.23 64.65 18.23C65.67 18.23 66.28 17.3 66.28 15.63V15.61ZM70.44 11.02H73.44V20.2H70.44V11.02ZM80.72 20.32C83 20.32 84.33 18.61 84.33 15.61L84.37 15.63C84.37 12.63 83 10.91 80.7 10.87C79.4932 10.8161 78.3818 11.5237 77.92 12.64H77.86V11H74.86V23.14H77.86V18.62H77.92C78.4043 19.7179 79.5224 20.3968 80.72 20.32ZM81.33 15.61C81.33 14.15 80.66 13.22 79.61 13.22C78.56 13.22 77.89 14.16 77.88 15.61C77.87 17.06 78.56 17.99 79.61 17.99C80.66 17.99 81.33 17.08 81.33 15.63V15.61ZM93.55 13.88C93.48 11.99 91.97 10.81 89.48 10.81V10.83C87 10.83 85.39 12 85.37 13.8C85.37 15.2 86.31 16.15 88.1 16.52L89.83 16.89C90.55 17.04 90.83 17.14 90.83 17.62C90.83 18.1 90.43 18.39 89.55 18.39C88.67 18.39 88.13 17.99 88.04 17.31H85.15C85.28 19.18 86.95 20.4 89.5 20.4C92.05 20.4 93.78 19.18 93.78 17.28C93.78 15.89 93 15.15 91.17 14.76L89.25 14.37C88.58 14.23 88.25 14.08 88.25 13.61C88.25 13.14 88.62 12.82 89.45 12.82C90.28 12.82 90.82 13.23 90.82 13.88H93.55ZM103.79 20.18H100.9V18.47H100.84C100.513 19.6529 99.4055 20.4479 98.18 20.38C97.2578 20.4324 96.3581 20.0825 95.7137 19.4208C95.0692 18.7591 94.7432 17.8505 94.82 16.93V11H97.82V16.24C97.82 17.33 98.38 17.91 99.31 17.91C99.7512 17.9109 100.171 17.7213 100.463 17.3898C100.754 17.0584 100.888 16.6174 100.83 16.18V11H103.83L103.79 20.18ZM108.14 11H105.24L105.19 20.2H108.19V14.79C108.144 14.4095 108.264 14.0277 108.518 13.741C108.772 13.4543 109.137 13.2901 109.52 13.29C110.34 13.29 110.79 13.79 110.79 14.71V20.2H113.64V14.77C113.591 14.3942 113.707 14.0155 113.958 13.7317C114.209 13.4479 114.571 13.2868 114.95 13.29C115.79 13.29 116.24 13.75 116.24 14.75V20.2H119.24V13.95C119.3 13.1266 119.008 12.3165 118.435 11.7214C117.863 11.1263 117.065 10.8023 116.24 10.83C114.954 10.7747 113.793 11.5977 113.42 12.83H113.36C113.161 11.6008 112.051 10.7306 110.81 10.83C109.6 10.8076 108.527 11.6049 108.2 12.77H108.14V11Z" fill="#696871"/>
<path fill-rule="evenodd" clip-rule="evenodd" d="M24.48 5.40002C25.2975 6.37195 25.9711 7.45638 26.48 8.62002C27.2212 10.3166 27.6026 12.1485 27.6 14C27.5945 21.4734 21.5433 27.5335 14.07 27.55C12.3311 27.5491 10.609 27.2094 8.99997 26.55C7.85232 26.094 6.77497 25.4779 5.79997 24.72C1.65295 21.5596 -0.309009 16.2974 0.756684 11.1935C1.82238 6.08949 5.72606 2.05206 10.7912 0.8151C15.8564 -0.421862 21.1817 1.36178 24.48 5.40002ZM18.58 4.19002C17.1642 3.53116 15.6215 3.18985 14.06 3.19002L14.07 3.17002C10.367 3.16726 6.92079 5.0618 4.93894 8.18977C2.95708 11.3177 2.71592 15.243 4.29997 18.59C4.75166 18.1155 5.03001 17.5024 5.08997 16.85C5.45368 14.3374 7.42738 12.3637 9.93997 12C11.3576 11.8715 12.4897 10.7644 12.65 9.35002C13.0137 6.83743 14.9874 4.86373 17.5 4.50002C17.8718 4.44337 18.2347 4.33919 18.58 4.19002ZM5.78997 21C5.82997 20.9634 5.86997 20.9278 5.90998 20.8922L5.91004 20.8922C5.99002 20.8211 6.06999 20.75 6.14997 20.67C7.03962 19.8075 7.61068 18.6689 7.76997 17.44C7.83455 16.7493 8.14297 16.1041 8.63997 15.62C9.11821 15.1222 9.76194 14.8163 10.45 14.76C12.9626 14.3963 14.9363 12.4226 15.3 9.91002C15.3432 9.18753 15.6533 8.50686 16.17 8.00002C16.66 7.51187 17.3099 7.21712 18 7.17002C19.1239 7.01538 20.1721 6.51573 21 5.74002C21.9426 6.52209 22.7413 7.46292 23.36 8.52002C23.322 8.57137 23.2784 8.61833 23.23 8.66002C22.7526 9.16222 22.1097 9.47478 21.42 9.54002C18.9042 9.89746 16.9274 11.8743 16.57 14.39C16.4247 15.8094 15.2998 16.93 13.88 17.07C11.3604 17.4309 9.37638 19.4027 8.99997 21.92C8.94615 22.4088 8.77831 22.878 8.50997 23.29C7.48397 22.6809 6.56505 21.9072 5.78997 21ZM11.06 24.44C12.0354 24.7197 13.0452 24.8611 14.06 24.86V24.81C17.409 24.797 20.5633 23.2338 22.6021 20.5768C24.6409 17.9197 25.3343 14.4683 24.48 11.23C23.7208 11.7668 22.842 12.1101 21.92 12.23C20.504 12.3745 19.3844 13.494 19.24 14.91C18.8751 17.4257 16.8964 19.4004 14.38 19.76C12.964 19.9045 11.8444 21.024 11.7 22.44C11.6105 23.1402 11.3936 23.818 11.06 24.44Z" fill="#696871"/>
</svg>

<svg width="120" height="28" fill="none" xmlns="http://www.w3.org/2000/svg"><path fill-rule="evenodd" clip-rule="evenodd" d="M71.35 7.381a1.53 1.53 0 00-.91 1.439v.02A1.46 1.46 0 0072 10.31a1.53 1.53 0 10-.65-2.929zm-33.48.689h-3V20.2h3V8.07zm5.87 2.76c-2.84 0-4.68 1.79-4.68 4.79 0 3.05 1.8 4.8 4.68 4.8s4.68-1.8 4.68-4.8-1.84-4.79-4.68-4.79zm1.67 4.79c0-1.65-.65-2.62-1.67-2.62s-1.66 1-1.66 2.62.63 2.6 1.66 2.6c1.03 0 1.67-.92 1.67-2.59v-.01zm7.02 5.17h-2.88v.01c.17 1.66 1.82 2.85 4.47 2.85 2.85 0 4.78-1.36 4.78-3.55V11h-3v1.67a2.87 2.87 0 00-2.76-1.76c-2.3 0-3.68 1.81-3.68 4.68 0 2.87 1.45 4.54 3.64 4.54a2.84 2.84 0 002.73-1.64h.06v1.68c0 .9-.6 1.52-1.74 1.52a1.55 1.55 0 01-1.62-.9zm3.37-5.18c0-1.46-.67-2.38-1.73-2.38s-1.71.91-1.71 2.38c0 1.47.64 2.3 1.71 2.3 1.07 0 1.73-.81 1.73-2.29v-.01zm8.81-4.79c-2.84 0-4.68 1.79-4.68 4.79v.01c0 3.05 1.79 4.79 4.68 4.79 2.89 0 4.69-1.8 4.69-4.8s-1.85-4.79-4.69-4.79zm1.67 4.79c0-1.65-.65-2.62-1.67-2.62S63 14 63 15.63c0 1.63.63 2.6 1.65 2.6s1.63-.93 1.63-2.6v-.02zm4.16-4.59h3v9.18h-3v-9.18zm10.28 9.3c2.28 0 3.61-1.71 3.61-4.71l.04.02c0-3-1.37-4.72-3.67-4.76a2.87 2.87 0 00-2.78 1.77h-.06V11h-3v12.14h3v-4.52h.06a2.86 2.86 0 002.8 1.7zm.61-4.71c0-1.46-.67-2.39-1.72-2.39-1.05 0-1.72.94-1.73 2.39-.01 1.45.68 2.38 1.73 2.38 1.05 0 1.72-.91 1.72-2.36v-.02zm12.22-1.73c-.07-1.89-1.58-3.07-4.07-3.07v.02c-2.48 0-4.09 1.17-4.11 2.97 0 1.4.94 2.35 2.73 2.72l1.73.37c.72.15 1 .25 1 .73s-.4.77-1.28.77-1.42-.4-1.51-1.08h-2.89c.13 1.87 1.8 3.09 4.35 3.09s4.28-1.22 4.28-3.12c0-1.39-.78-2.13-2.61-2.52l-1.92-.39c-.67-.14-1-.29-1-.76 0-.47.37-.79 1.2-.79s1.37.41 1.37 1.06h2.73zm10.24 6.3h-2.89v-1.71h-.06a2.61 2.61 0 01-2.66 1.91 3.19 3.19 0 01-3.36-3.45V11h3v5.24c0 1.09.56 1.67 1.49 1.67a1.532 1.532 0 001.52-1.73V11h3l-.04 9.18zm4.35-9.18h-2.9l-.05 9.2h3v-5.41a1.34 1.34 0 011.33-1.5c.82 0 1.27.5 1.27 1.42v5.49h2.85v-5.43a1.311 1.311 0 011.31-1.48c.84 0 1.29.46 1.29 1.46v5.45h3v-6.25a2.907 2.907 0 00-3-3.12 2.82 2.82 0 00-2.82 2h-.06a2.39 2.39 0 00-2.55-2 2.66 2.66 0 00-2.61 1.94h-.06V11zM24.48 5.4a13.251 13.251 0 012 3.22A13.392 13.392 0 0127.6 14c-.006 7.473-6.057 13.534-13.53 13.55a13.36 13.36 0 01-5.07-1 13.09 13.09 0 01-3.2-1.83A13.53 13.53 0 1124.48 5.4zm-5.9-1.21a10.71 10.71 0 00-4.52-1l.01-.02A10.8 10.8 0 004.3 18.59a2.91 2.91 0 00.79-1.74A5.73 5.73 0 019.94 12a3 3 0 002.71-2.65A5.73 5.73 0 0117.5 4.5a4.39 4.39 0 001.08-.31zM5.79 21l.12-.108a5.48 5.48 0 001.86-3.452 2.92 2.92 0 01.87-1.82 2.83 2.83 0 011.81-.86 5.73 5.73 0 004.85-4.85A2.92 2.92 0 0116.17 8 2.87 2.87 0 0118 7.17a5.48 5.48 0 003-1.43 10.512 10.512 0 012.36 2.78.86.86 0 01-.13.14 2.87 2.87 0 01-1.81.88 5.71 5.71 0 00-4.85 4.85 3 3 0 01-2.69 2.68A5.76 5.76 0 009 21.92a3.14 3.14 0 01-.49 1.37A10.888 10.888 0 015.79 21zm5.27 3.44c.975.28 1.985.421 3 .42v-.05a10.82 10.82 0 0010.42-13.58 5.71 5.71 0 01-2.56 1 3 3 0 00-2.68 2.68 5.73 5.73 0 01-4.86 4.85 3 3 0 00-2.68 2.68c-.09.7-.306 1.378-.64 2z" fill="#696871"/></svg>
